X: 32388
T: Piper On Horseback, The
R: reel
M: 4/4
K: Dmajor
~F3d cAAB|cAdB cAGE|~F3d cAAB|1 cAGE EDDE:|2 cAGE EDDA||
defg afdB|efed cA~A2|defg afdB|ABAG FDDA|
defg afdB|efed cAAe|~f3d efed|cAGE EDDE||

